X: 1
T:Sheel Raw Flud
M:3/4
L:1/8
C:Tommy Armstrong
K:D
|A|DDD F2F|GGG A2A|D D2 F2 A|G2E =C3
D2D FFF|G2GAAA|dAA A2 G| F2 D D2 A|
d2d AAA|D2D A2B|=c2 c G2G|=c c2 A2d|
d2d =c2 c|B2B A2F|G2E A2G|F2D D2|
